src/components/Icon/utils/svgsOptimized/trash.svg

<svg width="24" height="24" viewBox="0 0 24 24"  xmlns="http://www.w3.org/2000/svg">
<path d="M18.99 5.75H17.72H15.24V4C15.24 3.59 14.9 3.25 14.49 3.25H9.48999C9.07999 3.25 8.73999 3.59 8.73999 4V5.75H6.25999H4.98999C4.57999 5.75 4.23999 6.09 4.23999 6.5C4.23999 6.91 4.57999 7.25 4.98999 7.25H5.57999L6.74999 20.07C6.78999 20.46 7.10999 20.75 7.49999 20.75H16.5C16.89 20.75 17.21 20.45 17.25 20.07L18.42 7.25H19.01C19.42 7.25 19.76 6.91 19.76 6.5C19.76 6.09 19.4 5.75 18.99 5.75ZM10.24 4.75H13.74V5.75H10.24V4.75ZM10.51 17.25C10.49 17.25 10.46 17.25 10.44 17.25C10.06 17.25 9.72999 16.96 9.68999 16.57L9.09999 10.07C9.05999 9.66 9.36999 9.29 9.77999 9.25C10.18 9.22 10.56 9.52 10.59 9.93L11.18 16.43C11.23 16.84 10.93 17.21 10.51 17.25ZM14.28 16.57C14.24 16.96 13.92 17.25 13.53 17.25C13.51 17.25 13.48 17.25 13.46 17.25C13.05 17.21 12.74 16.85 12.78 16.43L13.37 9.93C13.41 9.52 13.77 9.22 14.18 9.25C14.59 9.29 14.9 9.65 14.86 10.07L14.28 16.57Z" />
</svg>

<?xml version="1.0" encoding="utf-8"?><svg width="24" height="24" xmlns="http://www.w3.org/2000/svg" viewBox="0 0 24 24"><path d="M18.99 5.75h-3.75V4c0-.41-.34-.75-.75-.75h-5c-.41 0-.75.34-.75.75v1.75H4.99c-.41 0-.75.34-.75.75s.34.75.75.75h.59l1.17 12.82c.04.39.36.68.75.68h9c.39 0 .71-.3.75-.68l1.17-12.82h.59c.41 0 .75-.34.75-.75s-.36-.75-.77-.75Zm-8.75-1h3.5v1h-3.5v-1Zm.27 12.5h-.07c-.38 0-.71-.29-.75-.68l-.59-6.5c-.04-.41.27-.78.68-.82.4-.03.78.27.81.68l.59 6.5c.05.41-.25.78-.67.82Zm3.77-.68a.75.75 0 0 1-.75.68h-.07a.753.753 0 0 1-.68-.82l.59-6.5c.04-.41.4-.71.81-.68.41.04.72.4.68.82l-.58 6.5Z"/></svg>
